images/aside-cost-info-7.svg

<svg width="24" height="24" viewBox="0 0 24 24" fill="none" xmlns="http://www.w3.org/2000/svg">
<path d="M19.439 7.85005C19.39 8.17205 19.4981 8.49805 19.7281 8.72805L21.296 10.296C21.766 10.766 22.0021 11.383 22.0021 12C22.0021 12.617 21.767 13.233 21.296 13.704L19.685 15.315C19.5768 15.4232 19.4447 15.5045 19.2993 15.5524C19.154 15.6004 18.9994 15.6136 18.848 15.591C18.378 15.521 18.046 15.111 17.88 14.666C17.7344 14.2728 17.4922 13.9226 17.1758 13.6474C16.8593 13.3723 16.4788 13.1811 16.0692 13.0915C15.6595 13.0019 15.2339 13.0168 14.8315 13.1347C14.4291 13.2526 14.0628 13.4698 13.7663 13.7663C13.4698 14.0628 13.2526 14.4291 13.1347 14.8315C13.0168 15.2339 13.0019 15.6595 13.0915 16.0692C13.1811 16.4788 13.3723 16.8593 13.6474 17.1758C13.9226 17.4922 14.2728 17.7344 14.666 17.88C15.112 18.046 15.521 18.377 15.591 18.848C15.6137 18.9994 15.6005 19.154 15.5526 19.2994C15.5046 19.4447 15.4233 19.5768 15.315 19.685L13.705 21.295C13.4814 21.5194 13.2157 21.6974 12.9231 21.8187C12.6305 21.94 12.3168 22.0023 12 22.0021C11.6835 22.0025 11.37 21.9403 11.0776 21.8191C10.7852 21.698 10.5195 21.5202 10.296 21.296L8.72805 19.7281C8.61472 19.6145 8.47634 19.5291 8.32403 19.4788C8.17172 19.4284 8.00972 19.4145 7.85105 19.438C7.35805 19.512 7.01105 19.942 6.83105 20.406C6.68017 20.7933 6.43513 21.1368 6.11809 21.4056C5.80105 21.6743 5.42202 21.8598 5.01528 21.9452C4.60853 22.0306 4.18692 22.0132 3.78857 21.8947C3.39022 21.7761 3.02771 21.5602 2.73383 21.2663C2.43995 20.9724 2.22397 20.6099 2.10543 20.2115C1.98689 19.8132 1.96954 19.3916 2.05494 18.9848C2.14033 18.5781 2.32579 18.199 2.59452 17.882C2.86325 17.565 3.20679 17.3199 3.59405 17.169C4.05805 16.989 4.48805 16.642 4.56105 16.149C4.58476 15.9905 4.57097 15.8285 4.52079 15.6762C4.4706 15.5239 4.38541 15.3855 4.27205 15.272L2.70405 13.704C2.4799 13.4805 2.30213 13.2149 2.18097 12.9225C2.05981 12.6301 1.99765 12.3166 1.99805 12C1.99805 11.383 2.23405 10.766 2.70405 10.296L4.23005 8.77005C4.47005 8.53005 4.81105 8.41705 5.14705 8.46705C5.66205 8.54405 6.02405 8.99505 6.22005 9.47705C6.37575 9.8588 6.62344 10.1961 6.94106 10.459C7.25869 10.7218 7.63639 10.902 8.04052 10.9835C8.44466 11.0651 8.86269 11.0454 9.25737 10.9263C9.65206 10.8071 10.0112 10.5922 10.3027 10.3007C10.5942 10.0092 10.8091 9.65006 10.9283 9.25537C11.0474 8.86069 11.0671 8.44266 10.9855 8.03852C10.904 7.63439 10.7238 7.25669 10.461 6.93906C10.1981 6.62144 9.8608 6.37375 9.47905 6.21805C8.99705 6.02205 8.54605 5.66005 8.46905 5.14505C8.41905 4.80905 8.53105 4.46905 8.77205 4.22805L10.297 2.70305C10.5205 2.4792 10.786 2.30168 11.0782 2.1807C11.3705 2.05972 11.6837 1.99765 12 1.99805C12.617 1.99805 13.234 2.23405 13.704 2.70405L15.272 4.27205C15.502 4.50205 15.828 4.61005 16.149 4.56205C16.642 4.48805 16.989 4.05805 17.169 3.59405C17.3199 3.20679 17.565 2.86325 17.882 2.59452C18.199 2.32579 18.5781 2.14033 18.9848 2.05494C19.3916 1.96954 19.8132 1.98689 20.2115 2.10543C20.6099 2.22397 20.9724 2.43995 21.2663 2.73383C21.5602 3.02771 21.7761 3.39022 21.8947 3.78857C22.0132 4.18692 22.0306 4.60853 21.9452 5.01528C21.8598 5.42202 21.6743 5.80105 21.4056 6.11809C21.1368 6.43513 20.7933 6.68017 20.406 6.83105C19.942 7.01105 19.512 7.35705 19.439 7.85005Z" stroke="white" stroke-width="1.5" stroke-linecap="round" stroke-linejoin="round"/>
</svg>

<svg width="24" height="24" fill="none" xmlns="http://www.w3.org/2000/svg"><path d="M19.439 7.85c-.049.322.06.648.29.878l1.567 1.568c.47.47.706 1.087.706 1.704s-.235 1.233-.706 1.704l-1.611 1.611a.978.978 0 01-.837.276c-.47-.07-.802-.48-.968-.925a2.501 2.501 0 10-3.214 3.214c.446.166.855.497.925.968a.979.979 0 01-.276.837l-1.61 1.61a2.403 2.403 0 01-2.627.524 2.401 2.401 0 01-.782-.523l-1.568-1.568a1.025 1.025 0 00-.877-.29c-.493.074-.84.504-1.02.968a2.5 2.5 0 11-3.237-3.237c.464-.18.894-.527.967-1.02a1.026 1.026 0 00-.289-.877l-1.568-1.568A2.402 2.402 0 011.998 12c0-.617.236-1.234.706-1.704L4.23 8.77c.24-.24.581-.353.917-.303.515.077.877.528 1.073 1.01a2.5 2.5 0 103.26-3.259c-.483-.196-.934-.558-1.011-1.073-.05-.336.062-.676.303-.917l1.525-1.525A2.403 2.403 0 0112 1.998c.617 0 1.234.236 1.704.706l1.568 1.568c.23.23.556.338.877.29.493-.074.84-.504 1.02-.968a2.5 2.5 0 113.237 3.237c-.464.18-.894.526-.967 1.019z" stroke="#fff" stroke-width="1.5" stroke-linecap="round" stroke-linejoin="round"/></svg>
